packages/calcite-ui-icons/icons/tangent-curve-24.svg

<?xml version="1.0" encoding="UTF-8"?><svg id="icons" xmlns="http://www.w3.org/2000/svg" viewBox="0 0 24 24"><defs><style>.cls-1{fill:none;}</style></defs><path d="M18,1v1c-6.6947.62878-12.57806,5.65487-14,12.009h-1v2.991h1.01483c-.00275.09711-.01483,6-.01483,6h.98517s.01221-5.90289.01483-6h1v-3h-1c1.40393-5.90308,6.76398-10.41472,13-11.036v1.036h3V1h-3ZM5,16h-1v-1h1v1ZM20,3h-1v-1h1v1Z"/><rect class="cls-1" y="0" width="24" height="24"/></svg>

<svg xmlns="http://www.w3.org/2000/svg" viewBox="0 0 24 24"><path d="M18 1v1c-6.695.629-12.578 5.655-14 12.009H3V17h1.015C4.012 17.097 4 23 4 23h.985s.012-5.903.015-6h1v-3H5C6.404 8.097 11.764 3.585 18 2.964V4h3V1h-3zM5 16H4v-1h1v1zM20 3h-1V2h1v1z"/><path fill="none" d="M0 0h24v24H0z"/></svg>
